icons/tokens/0x8e6741b456a074F0Bc45B8b82A755d4aF7E965dF/logo.svg

<svg width="32" height="32" viewBox="0 0 32 32" fill="none" xmlns="http://www.w3.org/2000/svg">
<path fill-rule="evenodd" clip-rule="evenodd" d="M32 15.9999C32 13.9059 31.5834 11.8118 30.7821 9.87706C29.9805 7.94234 28.7942 6.16698 27.3136 4.68634C25.833 3.20538 24.0576 2.01946 22.1229 1.21786C20.1882 0.416579 18.0941 -6.10352e-05 16 -6.10352e-05C13.9059 -6.10352e-05 11.8115 0.416579 9.8768 1.21786C7.94208 2.01946 6.16704 3.20538 4.68608 4.68634C3.20544 6.16698 2.0192 7.94234 1.21792 9.87706C0.41632 11.8118 0 13.9059 0 15.9999C0 18.094 0.41632 20.1881 1.21792 22.1228C2.0192 24.0575 3.20544 25.8329 4.68608 27.3139C6.16704 28.7945 7.94208 29.9807 9.8768 30.782C11.8115 31.5833 13.9059 31.9999 16 31.9999C18.0941 31.9999 20.1882 31.5833 22.1229 30.782C24.0576 29.9807 25.833 28.7945 27.3136 27.3139C28.7942 25.8329 29.9805 24.0575 30.7821 22.1228C31.5834 20.1881 32 18.094 32 15.9999Z" fill="white"/>
<path fill-rule="evenodd" clip-rule="evenodd" d="M11.8547 3.38361C13.3453 2.89369 14.9382 2.66969 16.5162 2.73017C18.0944 2.79065 19.6579 3.13593 21.113 3.74393C22.5683 4.35193 23.9152 5.22297 25.0675 6.29753C26.5917 7.71929 27.775 9.49753 28.4848 11.4867C29.1949 13.4761 29.4314 15.6764 29.1574 17.7711C28.8838 19.8659 28.0998 21.8553 26.9139 23.566C25.728 25.2767 24.1398 26.7084 22.2746 27.7004C20.4093 28.6921 18.2662 29.2438 16.1539 29.2758C14.0416 29.3078 11.9597 28.8204 10.095 27.895C8.23073 26.9695 6.58337 25.6063 5.33249 23.9036C4.08161 22.2009 3.22721 20.1587 2.88801 18.0748C2.54881 15.9907 2.72481 13.8646 3.37473 11.8812C3.86593 10.3817 4.62817 8.96409 5.6048 7.73561H4.12033V5.28185H9.93696V10.7135H7.48321V9.22937C6.68321 10.2355 6.05857 11.3967 5.65633 12.6255C5.12417 14.2511 4.98081 15.9951 5.25633 17.6969C5.59873 19.8137 6.58881 21.8649 8.06657 23.4457C9.83425 25.3363 12.2995 26.5542 14.8659 26.8207C17.432 27.0873 20.0992 26.4028 22.2173 24.9286C24.3354 23.4543 25.905 21.1903 26.5421 18.6899C27.1792 16.1894 26.8838 13.4524 25.735 11.142C24.5862 8.83161 22.5837 6.94841 20.1891 5.95897C17.7946 4.96921 15.0077 4.87385 12.6038 5.66361L11.8547 3.38361Z" fill="url(#paint0_linear)"/>
<path fill-rule="evenodd" clip-rule="evenodd" d="M11.1396 17.6454L14.0333 11.6015L11.3991 20.2269C11.2772 19.6742 11.1553 19.1217 11.0336 18.569C10.9648 18.2578 11.0023 17.9327 11.1396 17.6454Z" fill="black"/>
<path fill-rule="evenodd" clip-rule="evenodd" d="M15.5964 19.9423C14.8763 19.3401 14.156 18.7379 13.436 18.1356C13.3079 18.0288 13.2146 17.887 13.1674 17.7285C13.12 17.5696 13.1207 17.4003 13.1704 17.2425C13.2944 16.8476 13.4167 16.4521 13.5373 16.0562L15.5973 18.631L15.5964 19.9423Z" fill="black"/>
<path fill-rule="evenodd" clip-rule="evenodd" d="M14.0371 14.487L16.0237 8C16.6858 10.1622 17.3481 12.3246 18.0102 14.487C18.0657 14.6679 18.0767 14.86 18.0415 15.0469C18.0068 15.2331 17.9264 15.4076 17.8081 15.5564C17.2112 16.3059 16.6164 17.0571 16.0237 17.81C15.4289 17.0588 14.834 16.3076 14.2392 15.5564C14.1213 15.4074 14.0416 15.2329 14.0058 15.046C13.9703 14.86 13.9815 14.6677 14.0371 14.487Z" fill="black"/>
<path fill-rule="evenodd" clip-rule="evenodd" d="M18.4626 16.0088C18.5849 16.4043 18.7072 16.7998 18.8297 17.1951C18.8788 17.3538 18.8801 17.5224 18.8325 17.6811C18.7849 17.8405 18.6924 17.9816 18.564 18.0885C17.8424 18.6892 17.1221 19.2914 16.4028 19.8949V18.5836L18.4626 16.0088Z" fill="black"/>
<path fill-rule="evenodd" clip-rule="evenodd" d="M16.4028 23.8758V21.0403L19.2354 18.663C19.4982 19.5159 19.7608 20.3689 20.0236 21.2217C20.0666 21.3613 20.0609 21.511 20.0067 21.6466C19.9527 21.7822 19.855 21.8961 19.7274 21.9693C18.6196 22.6056 17.5114 23.241 16.4028 23.8758Z" fill="black"/>
<path fill-rule="evenodd" clip-rule="evenodd" d="M20.6011 20.3008L17.9668 11.6427C18.9311 13.6648 19.8954 15.6871 20.8597 17.7095C20.9972 17.9979 21.0353 18.3242 20.9666 18.6363C20.8442 19.1911 20.7226 19.7459 20.6011 20.3008Z" fill="black"/>
<path fill-rule="evenodd" clip-rule="evenodd" d="M15.5973 23.8758C14.4889 23.2404 13.3807 22.6049 12.2725 21.9693C12.1449 21.8961 12.0465 21.7824 11.9932 21.6466C11.9399 21.5107 11.9329 21.3613 11.9765 21.2217C12.2423 20.3698 12.5049 19.5168 12.7645 18.663L15.5973 21.0403V23.8758Z" fill="black"/>
<defs>
<linearGradient id="paint0_linear" x1="2.04343" y1="13.297" x2="15.2222" y2="29.5764" gradientUnits="userSpaceOnUse">
<stop stop-color="#004CFF"/>
<stop offset="0.252131" stop-color="#00E0FB"/>
<stop offset="0.505709" stop-color="#87FF70"/>
<stop offset="0.755054" stop-color="#F8F500"/>
<stop offset="1" stop-color="#FF1A00"/>
</linearGradient>
</defs>
</svg>

<svg width="32" height="32" fill="none" xmlns="http://www.w3.org/2000/svg"><path fill-rule="evenodd" clip-rule="evenodd" d="M32 16c0-2.094-.417-4.188-1.218-6.123a16.058 16.058 0 00-3.468-5.19 16.051 16.051 0 00-5.191-3.47A16.054 16.054 0 0016 0c-2.094 0-4.188.417-6.123 1.218a16.055 16.055 0 00-5.19 3.468 16.05 16.05 0 00-3.47 5.191A16.049 16.049 0 000 16c0 2.094.416 4.188 1.218 6.123a16.056 16.056 0 003.468 5.19 16.055 16.055 0 005.19 3.469A16.056 16.056 0 0016 32c2.094 0 4.188-.417 6.123-1.218a16.051 16.051 0 005.19-3.468 16.063 16.063 0 003.47-5.191A16.054 16.054 0 0032 16z" fill="#fff"/><path fill-rule="evenodd" clip-rule="evenodd" d="M11.855 3.384a13.267 13.267 0 0113.213 2.914 13.155 13.155 0 013.417 5.189c.71 1.99.946 4.19.672 6.284a13.194 13.194 0 01-2.243 5.795 13.207 13.207 0 01-4.64 4.134 13.622 13.622 0 01-6.12 1.576 13.207 13.207 0 01-6.059-1.381 13.19 13.19 0 01-4.763-3.991 13.662 13.662 0 01-2.444-5.83 13.13 13.13 0 01.487-6.193 13.392 13.392 0 012.23-4.145H4.12V5.282h5.817v5.431H7.483V9.23a10.961 10.961 0 00-1.827 3.397 10.787 10.787 0 00-.4 5.07 11.107 11.107 0 002.81 5.75 10.952 10.952 0 006.8 3.375 11.023 11.023 0 007.351-1.892 10.999 10.999 0 004.325-6.24c.637-2.5.342-5.237-.807-7.547a10.919 10.919 0 00-5.546-5.183c-2.394-.99-5.181-1.085-7.585-.295l-.75-2.28z" fill="url(#paint0_linear)"/><path fill-rule="evenodd" clip-rule="evenodd" d="M11.14 17.645l2.893-6.043-2.634 8.625-.365-1.658a1.427 1.427 0 01.106-.924zM15.596 19.942l-2.16-1.806a.844.844 0 01-.266-.893c.124-.395.247-.79.367-1.187l2.06 2.575v1.311zM14.037 14.487L16.024 8l1.986 6.487a1.17 1.17 0 01-.202 1.07c-.597.749-1.192 1.5-1.784 2.253l-1.785-2.254a1.178 1.178 0 01-.202-1.069zM18.463 16.009l.367 1.186a.832.832 0 01-.266.893c-.722.601-1.442 1.203-2.161 1.807v-1.311l2.06-2.575zM16.403 23.876V21.04l2.832-2.377.789 2.559a.647.647 0 01-.296.748l-3.325 1.906zM20.601 20.3l-2.634-8.657 2.893 6.066c.137.289.175.615.107.927l-.366 1.665zM15.597 23.876l-3.324-1.907a.643.643 0 01-.296-.747c.265-.852.528-1.705.787-2.559l2.833 2.377v2.836z" fill="#000"/><defs><linearGradient id="paint0_linear" x1="2.043" y1="13.297" x2="15.222" y2="29.576" gradientUnits="userSpaceOnUse"><stop stop-color="#004CFF"/><stop offset=".252" stop-color="#00E0FB"/><stop offset=".506" stop-color="#87FF70"/><stop offset=".755" stop-color="#F8F500"/><stop offset="1" stop-color="#FF1A00"/></linearGradient></defs></svg>
